X: 41934
T: Walby's
R: waltz
M: 3/4
K: Dmajor
|:"D"d3cde|"Bm"f3dB2|"G"G3Bd2|"A"A3Bc2|
"D"d3cde|"Bm"f3dB2|"Em"b3gf2|"A7"e3fg2|
"G"b3gbg|"F#m"a3fa2|"Bm"f3dB2|"A7"A3ABc|
"D"d3cde|"Bm"f3dB2|"A"c3af2|"D"d4d2:|
|:"D"f3df2|"C#/A"a3ca2|"G"b3c'd'd|"F#/D"a4d2|
"Bm"f3df2|"A"a3ca2|"F#m"f3af2|"Em"e4de|
"D"f3dA2|"G"B3cd2|"Em"B4G2|"A7"A3ABc|
"D"d3cde|"Bm"f3dB2|"A"A3ec2|"D"d4d2:|

